X: 061850
T: Fair Roscommon
S: "Passing Time" (Jim & Mary Coogan & friends)
N: Close relative of "Tralee Jail"
L: 1/8
M: 2/4
R: polka
Q: 250
K: Edor
BE EF/A/ | BA FA | BE EF/E/ | D>A FA |
BE EF/A/ | BA FA | AF dF | E2 E2 :|
Be ed/e/ | fe dA | Be ef | d2 cd |
Be ed/e/ | fe dA | AF AF | E2 E2 :|
